X: 1
T: Open The Door
M: 4/4
L: 1/8
R: hornpipe
K: Dmaj
AG|:F2 A2 AF A2|B2 d2 d2 ef|g2 f2 ed e2|df d2 dBAG|
F2 A2 AF A2|B2 d2 d2 ef|g2 f2 ed e2|d4 d4:|
fd f2 fd f2|e2 f2 g4|fd f2 fd f2|ec A2 A4|
fd f2 fd f2|e2 f2 g2 fg|a2 f2 ed e2|d4 d4:|
